;FLAVOR:Marlin
;TIME:6921
;Filament used: 4.60346m
;Layer height: 0.2
;MINX:73.5
;MINY:85.647
;MINZ:0.2
;MAXX:146.5
;MAXY:135.15
;MAXZ:30
;Generated with Cura_SteamEngine 5.4.0
M82 ;absolute extrusion mode
; Ender 3 S1 Pro Start G-code
; M413 S0 ; Disable power loss recovery
G92 E0 ; Reset Extruder

; Prep surfaces before auto home for better accuracy
M140 S60
M104 S210.0

G28 O ; Home all untrusted axes
G1 Z10.0 F3000 ; Move Z Axis up little to prevent scratching of Heat Bed
G1 X0 Y0

M190 S60
M109 S210.0

G1 X0.1 Y20 Z0.3 F5000.0 ; Move to start position
G1 X0.1 Y200.0 Z0.3 F1500.0 E15 ; Draw the first line
G1 X0.4 Y200.0 Z0.3 F5000.0 ; Move to side a little
G1 X0.4 Y20 Z0.3 F1500.0 E30 ; Draw the second line
G92 E0 ; Reset Extruder
G1 Z2.0 F3000 ; Move Z Axis up little to prevent scratching of Heat Bed
G1 X5 Y20 Z0.3 F5000.0 ; Move over to prevent blob squish

G92 E0
G92 E0
G1 F2400 E-0.8
;LAYER_COUNT:150
;LAYER:0
M107
M204 S2000
G0 F7500 X76.956 Y88.66 Z0.2
M204 S500
;TYPE:SKIRT
G1 F2400 E0
G1 F1500 X77.692 Y88.023 E0.03237
G1 X78.424 Y87.493 E0.06243
G1 X79.321 Y86.958 E0.09717
G1 X80.199 Y86.537 E0.12956
G1 X81.112 Y86.195 E0.16198
G1 X82.049 Y85.936 E0.19432
G1 X83.016 Y85.758 E0.22702
G1 X84.155 Y85.662 E0.26504
G1 X84.812 Y85.647 E0.2869
G1 X86.804 Y85.647 E0.35315
G1 X87.686 Y85.66 E0.38249
G1 X88.667 Y85.721 E0.41518
G1 X89.825 Y85.907 E0.45419
G1 X91.047 Y86.172 E0.49578
G1 X93.589 Y86.686 E0.58204
G1 X96.055 Y87.114 E0.66528
G1 X98.592 Y87.479 E0.75053
G1 X101.048 Y87.763 E0.83276
G1 X103.56 Y87.982 E0.91663
G1 X106.102 Y88.129 E1.00132
G1 X108.599 Y88.204 E1.0844
G1 X111.123 Y88.209 E1.16835
G1 X113.627 Y88.142 E1.25167
G1 X116.136 Y88.007 E1.33524
G1 X118.653 Y87.796 E1.41925
G1 X121.162 Y87.515 E1.50322
G1 X123.678 Y87.162 E1.58772
G1 X126.119 Y86.748 E1.67007
G1 X128.656 Y86.243 E1.7561
G1 X130.166 Y85.91 E1.80753
G1 X131.132 Y85.743 E1.84014
G1 X132.206 Y85.66 E1.87597
G1 X132.83 Y85.647 E1.89673
G1 X134.936 Y85.648 E1.96677
G1 X135.669 Y85.659 E1.99115
G1 X136.641 Y85.716 E2.02354
G1 X137.604 Y85.862 E2.05593
G1 X138.55 Y86.091 E2.08831
G1 X139.474 Y86.403 E2.12074
G1 X140.364 Y86.795 E2.15309
G1 X141.187 Y87.246 E2.1843
G1 X142.026 Y87.807 E2.21787
G1 X142.73 Y88.373 E2.24792
G1 X143.483 Y89.098 E2.28268
G1 X144.12 Y89.834 E2.31506
G1 X144.65 Y90.565 E2.34509
G1 X145.186 Y91.462 E2.37984
G1 X145.608 Y92.34 E2.41224
G1 X145.95 Y93.252 E2.44464
G1 X146.21 Y94.19 E2.47701
G1 X146.388 Y95.157 E2.50972
G1 X146.485 Y96.302 E2.54794
G1 X146.5 Y96.977 E2.57039
G1 X146.499 Y110.068 E3.0058
G1 X146.487 Y110.833 E3.03125
G1 X146.429 Y111.805 E3.06363
G1 X146.283 Y112.769 E3.09606
G1 X146.052 Y113.715 E3.12845
G1 X145.74 Y114.637 E3.16083
G1 X145.347 Y115.528 E3.19321
G1 X144.878 Y116.38 E3.22556
G1 X144.376 Y117.131 E3.25561
G1 X143.719 Y117.945 E3.2904
G1 X143.041 Y118.644 E3.32279
G1 X142.304 Y119.281 E3.35519
G1 X141.516 Y119.849 E3.3875
G1 X140.732 Y120.319 E3.4179
G1 X138.537 Y121.507 E3.50091
G1 X136.347 Y122.773 E3.58505
G1 X134.233 Y124.078 E3.66768
G1 X132.127 Y125.458 E3.75142
G1 X130.049 Y126.909 E3.83572
G1 X128.029 Y128.404 E3.9193
G1 X126.063 Y129.947 E4.00243
G1 X123.522 Y132.075 E4.11266
G1 X122.732 Y132.674 E4.14564
G1 X121.908 Y133.193 E4.17803
G1 X121.105 Y133.607 E4.20807
G1 X120.152 Y133.996 E4.24231
G1 X119.602 Y134.176 E4.26156
G1 X118.623 Y134.462 E4.29548
G1 X117.452 Y134.777 E4.33581
G1 X116.5 Y134.988 E4.36825
G1 X115.534 Y135.112 E4.40064
G1 X114.561 Y135.15 E4.43302
G1 X113.615 Y135.104 E4.46453
G1 X110.883 Y134.844 E4.5558
G1 X108.41 Y134.68 E4.63824
G1 X106.631 Y134.609 E4.69745
G1 X106.031 Y134.576 E4.71744
G1 X105.09 Y134.479 E4.7489
G1 X103.678 Y134.18 E4.79691
G1 X102.578 Y133.869 E4.83493
G1 X101.649 Y133.585 E4.86724
G1 X100.798 Y133.283 E4.89727
G1 X99.849 Y132.846 E4.93202
G1 X99.034 Y132.379 E4.96326
G1 X98.229 Y131.821 E4.99584
G1 X96.083 Y130.182 E5.08565
G1 X94.007 Y128.686 E5.17076
G1 X91.92 Y127.272 E5.25461
G1 X89.794 Y125.917 E5.33846
G1 X87.664 Y124.645 E5.42097
G1 X85.439 Y123.398 E5.50581
G1 X83.24 Y122.246 E5.58838
G1 X80.725 Y121.021 E5.68142
G1 X79.798 Y120.584 E5.71551
G1 X78.938 Y120.128 E5.74788
G1 X78.122 Y119.598 E5.78025
G1 X77.355 Y118.999 E5.81261
G1 X76.643 Y118.333 E5.84504
G1 X75.994 Y117.607 E5.87743
G1 X75.412 Y116.826 E5.90982
G1 X74.901 Y115.997 E5.94221
G1 X74.465 Y115.126 E5.97461
G1 X74.109 Y114.221 E6.00696
G1 X73.832 Y113.287 E6.03936
G1 X73.652 Y112.402 E6.0694
G1 X73.515 Y110.98 E6.11691
G1 X73.5 Y110.323 E6.13877
G1 X73.501 Y97.172 E6.57617
G1 X73.512 Y96.472 E6.59946
G1 X73.57 Y95.499 E6.63188
G1 X73.716 Y94.536 E6.66427
G1 X73.946 Y93.59 E6.69665
G1 X74.259 Y92.667 E6.72907
G1 X74.651 Y91.777 E6.76142
G1 X75.121 Y90.924 E6.79381
G1 X75.664 Y90.116 E6.82619
G1 X76.231 Y89.412 E6.85625
G1 X76.956 Y88.66 E6.89099
M204 S2000
G0 F7500 X77.218 Y88.962
M204 S500
G1 F1500 X77.927 Y88.347 E6.92221
G1 X78.659 Y87.817 E6.95227
G1 X79.495 Y87.318 E6.98465
G1 X80.34 Y86.911 E7.01585
G1 X81.219 Y86.58 E7.04709
G1 X82.122 Y86.329 E7.07826
G1 X83.05 Y86.157 E7.10965
G1 X84.189 Y86.061 E7.14767
G1 X84.821 Y86.047 E7.16869
G1 X86.798 Y86.047 E7.23445
G1 X87.662 Y86.059 E7.26319
G1 X88.604 Y86.116 E7.29458
G1 X89.74 Y86.298 E7.33284
G1 X90.962 Y86.563 E7.37443
G1 X93.513 Y87.079 E7.461
G1 X95.998 Y87.51 E7.54488
G1 X98.535 Y87.875 E7.63013
G1 X101.013 Y88.162 E7.7131
G1 X103.525 Y88.38 E7.79696
G1 X106.09 Y88.529 E7.88242
G1 X108.587 Y88.604 E7.96551
G1 X111.133 Y88.609 E8.05019
G1 X113.638 Y88.542 E8.13353
G1 X116.169 Y88.405 E8.21784
G1 X118.698 Y88.194 E8.30225
G1 X121.207 Y87.913 E8.38622
G1 X123.734 Y87.558 E8.47109
G1 X126.192 Y87.141 E8.55401
G1 X128.742 Y86.634 E8.64049
G1 X130.235 Y86.304 E8.69134
G1 X131.163 Y86.142 E8.72267
G1 X132.214 Y86.06 E8.75774
G1 X132.83 Y86.047 E8.77823
G1 X134.93 Y86.048 E8.84808
G1 X135.646 Y86.058 E8.87189
G1 X136.582 Y86.112 E8.90308
G1 X137.511 Y86.251 E8.93432
G1 X138.423 Y86.47 E8.96551
G1 X139.313 Y86.769 E8.99674
G1 X140.172 Y87.146 E9.02794
G1 X140.995 Y87.597 E9.05916
G1 X141.775 Y88.119 E9.09037
G1 X142.479 Y88.685 E9.12042
G1 X143.181 Y89.36 E9.15281
G1 X143.796 Y90.069 E9.18402
G1 X144.326 Y90.8 E9.21406
G1 X144.826 Y91.636 E9.24645
G1 X145.234 Y92.481 E9.27766
G1 X145.565 Y93.359 E9.30887
G1 X145.817 Y94.263 E9.34009
G1 X145.989 Y95.191 E9.37148
G1 X146.086 Y96.336 E9.4097
G1 X146.1 Y96.977 E9.43102
G1 X146.099 Y110.062 E9.86623
G1 X146.088 Y110.81 E9.89111
G1 X146.033 Y111.746 E9.9223
G1 X145.894 Y112.675 E9.95354
G1 X145.673 Y113.587 E9.98475
G1 X145.374 Y114.476 E10.01595
G1 X144.996 Y115.336 E10.04719
G1 X144.545 Y116.158 E10.07838
G1 X144.043 Y116.909 E10.10842
G1 X143.431 Y117.667 E10.14082
G1 X142.779 Y118.342 E10.17204
G1 X142.07 Y118.957 E10.20325
G1 X141.31 Y119.506 E10.23444
G1 X140.541 Y119.967 E10.26426
G1 X138.346 Y121.156 E10.34729
G1 X136.147 Y122.427 E10.43176
G1 X134.014 Y123.743 E10.51512
G1 X131.908 Y125.123 E10.59887
G1 X129.811 Y126.587 E10.68393
G1 X127.791 Y128.082 E10.76751
G1 X125.816 Y129.632 E10.85102
G1 X123.265 Y131.768 E10.96168
G1 X122.519 Y132.336 E10.99287
G1 X121.725 Y132.837 E11.02409
G1 X120.922 Y133.251 E11.05414
G1 X120.028 Y133.616 E11.08626
G1 X119.49 Y133.792 E11.10508
G1 X118.519 Y134.076 E11.13873
G1 X117.365 Y134.387 E11.17849
G1 X116.448 Y134.591 E11.20973
G1 X115.518 Y134.712 E11.24092
G1 X114.58 Y134.75 E11.27215
G1 X113.634 Y134.704 E11.30365
G1 X110.91 Y134.445 E11.39466
G1 X108.426 Y134.28 E11.47746
G1 X106.653 Y134.21 E11.53647
G1 X106.072 Y134.178 E11.55583
G1 X105.131 Y134.081 E11.58729
G1 X103.787 Y133.795 E11.63299
G1 X102.695 Y133.486 E11.67074
G1 X101.783 Y133.208 E11.70245
G1 X100.932 Y132.906 E11.73248
G1 X100.048 Y132.499 E11.76485
G1 X99.233 Y132.032 E11.79609
G1 X98.472 Y131.503 E11.82692
G1 X96.317 Y129.857 E11.91711
G1 X94.241 Y128.362 E12.0022
G1 X92.144 Y126.941 E12.08645
G1 X90.009 Y125.58 E12.17066
G1 X87.86 Y124.296 E12.25393
G1 X85.635 Y123.049 E12.33876
G1 X83.415 Y121.886 E12.42212
G1 X80.9 Y120.661 E12.51516
G1 X79.985 Y120.23 E12.5488
G1 X79.155 Y119.792 E12.58001
G1 X78.368 Y119.283 E12.61119
G1 X77.628 Y118.706 E12.6424
G1 X76.941 Y118.066 E12.67363
G1 X76.314 Y117.367 E12.70486
G1 X75.752 Y116.616 E12.73606
G1 X75.258 Y115.817 E12.7673
G1 X74.837 Y114.979 E12.79849
G1 X74.492 Y114.107 E12.82968
G1 X74.224 Y113.207 E12.86091
G1 X74.044 Y112.322 E12.89095
G1 X73.915 Y110.971 E12.93609
G1 X73.9 Y110.323 E12.95765
G1 X73.901 Y97.178 E13.39485
G1 X73.911 Y96.495 E13.41757
G1 X73.966 Y95.558 E13.44879
G1 X74.105 Y94.63 E13.48
G1 X74.325 Y93.718 E13.5112
G1 X74.625 Y92.828 E13.54244
G1 X75.002 Y91.969 E13.57364
G1 X75.453 Y91.147 E13.60483
G1 X75.976 Y90.367 E13.63606
G1 X76.543 Y89.663 E13.66613
G1 X77.218 Y88.962 E13.6985
M204 S2000
G0 F7500 X77.481 Y89.264
M204 S500
G1 F1500 X78.162 Y88.671 E13.72853
G1 X78.894 Y88.141 E13.75859
G1 X79.669 Y87.678 E13.78861
G1 X80.482 Y87.285 E13.81865
G1 X81.327 Y86.965 E13.8487
G1 X82.196 Y86.722 E13.87871
G1 X83.084 Y86.556 E13.90876
G1 X84.223 Y86.46 E13.94678
G1 X84.83 Y86.447 E13.96697
G1 X86.793 Y86.447 E14.03226
G1 X87.639 Y86.458 E14.0604
G1 X88.541 Y86.511 E14.09045
G1 X89.655 Y86.689 E14.12797
G1 X90.877 Y86.954 E14.16956
G1 X93.437 Y87.472 E14.25643
G1 X95.941 Y87.906 E14.34096
G1 X98.478 Y88.271 E14.42621
G1 X100.969 Y88.559 E14.50961
G1 X103.502 Y88.779 E14.59418
G1 X106.078 Y88.929 E14.68
G1 X108.575 Y89.004 E14.76309
G1 X111.143 Y89.009 E14.8485
G1 X113.649 Y88.942 E14.93188
G1 X116.202 Y88.803 E15.01692
G1 X118.739 Y88.592 E15.10159
G1 X121.251 Y88.311 E15.18566
G1 X123.79 Y87.954 E15.27094
G1 X126.265 Y87.534 E15.35444
G1 X128.829 Y87.025 E15.44138
G1 X130.304 Y86.698 E15.49163
G1 X131.194 Y86.541 E15.52169
G1 X132.223 Y86.46 E15.55602
G1 X132.83 Y86.447 E15.57621
G1 X134.925 Y86.448 E15.64589
G1 X135.623 Y86.457 E15.66911
G1 X136.524 Y86.508 E15.69912
G1 X137.418 Y86.64 E15.72918
G1 X138.296 Y86.849 E15.7592
G1 X139.153 Y87.136 E15.78926
G1 X139.98 Y87.497 E15.81927
G1 X140.773 Y87.93 E15.84932
G1 X141.524 Y88.431 E15.87935
G1 X142.228 Y88.997 E15.90939
G1 X142.879 Y89.623 E15.93943
G1 X143.472 Y90.304 E15.96947
G1 X144.002 Y91.035 E15.9995
G1 X144.466 Y91.81 E16.02954
G1 X144.86 Y92.623 E16.05959
G1 X145.18 Y93.467 E16.08961
G1 X145.424 Y94.337 E16.11966
G1 X145.59 Y95.225 E16.14971
G1 X145.687 Y96.37 E16.18793
G1 X145.7 Y96.977 E16.20812
G1 X145.699 Y110.057 E16.64317
G1 X145.689 Y110.787 E16.66745
G1 X145.637 Y111.688 E16.69747
G1 X145.505 Y112.582 E16.72752
G1 X145.294 Y113.46 E16.75756
G1 X145.007 Y114.316 E16.78758
G1 X144.645 Y115.144 E16.81764
G1 X144.212 Y115.936 E16.84766
G1 X143.71 Y116.687 E16.87771
G1 X143.143 Y117.39 E16.90775
G1 X142.517 Y118.04 E16.93776
G1 X141.835 Y118.633 E16.96782
G1 X141.104 Y119.163 E16.99785
G1 X140.35 Y119.615 E17.02709
G1 X138.155 Y120.805 E17.11014
G1 X135.947 Y122.081 E17.19496
G1 X133.795 Y123.408 E17.27904
G1 X131.689 Y124.788 E17.36279
G1 X129.573 Y126.265 E17.44862
G1 X127.553 Y127.76 E17.5322
G1 X125.569 Y129.317 E17.61608
G1 X123.022 Y131.45 E17.72658
G1 X122.305 Y131.998 E17.7566
G1 X121.542 Y132.481 E17.78663
G1 X120.739 Y132.895 E17.81668
G1 X119.903 Y133.236 E17.84671
G1 X119.378 Y133.408 E17.86508
G1 X118.415 Y133.69 E17.89846
G1 X117.278 Y133.997 E17.93763
G1 X116.396 Y134.194 E17.96769
G1 X115.501 Y134.312 E17.99771
G1 X114.599 Y134.35 E18.02774
G1 X113.653 Y134.304 E18.05924
G1 X110.937 Y134.046 E18.14998
G1 X108.442 Y133.88 E18.23315
G1 X106.675 Y133.811 E18.29197
G1 X106.112 Y133.78 E18.31072
G1 X105.214 Y133.69 E18.34074
G1 X103.896 Y133.41 E18.38555
G1 X102.811 Y133.103 E18.42306
G1 X101.917 Y132.831 E18.45414
G1 X101.066 Y132.529 E18.48417
G1 X100.246 Y132.152 E18.51419
G1 X99.461 Y131.704 E18.54425
G1 X98.715 Y131.185 E18.57448
G1 X96.551 Y129.532 E18.66505
G1 X94.475 Y128.038 E18.75012
G1 X92.368 Y126.61 E18.83477
G1 X90.224 Y125.243 E18.91934
G1 X88.056 Y123.947 E19.00335
G1 X85.831 Y122.7 E19.08819
G1 X83.59 Y121.526 E19.17233
G1 X81.075 Y120.301 E19.26538
G1 X80.171 Y119.876 E19.2986
G1 X79.372 Y119.456 E19.32862
G1 X78.613 Y118.967 E19.35865
G1 X77.9 Y118.413 E19.38868
G1 X77.238 Y117.798 E19.41874
G1 X76.634 Y117.127 E19.44877
G1 X76.092 Y116.405 E19.47879
G1 X75.615 Y115.637 E19.50886
G1 X75.209 Y114.831 E19.53888
G1 X74.875 Y113.992 E19.56891
G1 X74.616 Y113.127 E19.59895
G1 X74.436 Y112.242 E19.62898
G1 X74.315 Y110.962 E19.67175
G1 X74.3 Y110.323 E19.69301
G1 X74.301 Y97.183 E20.13004
G1 X74.31 Y96.518 E20.15216
G1 X74.362 Y95.616 E20.18221
G1 X74.494 Y94.723 E20.21224
G1 X74.704 Y93.845 E20.24226
G1 X74.991 Y92.988 E20.27232
G1 X75.353 Y92.161 E20.30235
G1 X75.786 Y91.369 E20.33237
G1 X76.288 Y90.618 E20.36242
G1 X76.855 Y89.914 E20.39248
G1 X77.481 Y89.264 E20.4225
M204 S2000
G1 F2400 E19.6225
G0 F7500 X83.847 Y111.306
G0 X104.437 Y115.745
M204 S500
G1 F2400 E20.4225
G1 F1500 X104.794 Y116.068 E20.43851
G1 X105.23 Y116.355 E20.45587
G1 X105.703 Y116.571 E20.47317
G1 X106.205 Y116.713 E20.49052
G1 X106.722 Y116.777 E20.50784
G1 X107.243 Y116.76 E20.52518
G1 X107.755 Y116.664 E20.54251
G1 X108.247 Y116.491 E20.55985
G1 X108.706 Y116.245 E20.57717
G1 X109.123 Y115.932 E20.59452
G1 X109.342 Y115.721 E20.60463
G1 X109.898 Y115.135 E20.6315
G1 X110.197 Y115.331 E20.64339
G1 X110.671 Y115.547 E20.66071
G1 X111.173 Y115.688 E20.67806
G1 X111.69 Y115.751 E20.69538
G1 X112.211 Y115.734 E20.71272
G1 X112.723 Y115.637 E20.73005
G1 X113.215 Y115.463 E20.74741
G1 X113.394 Y115.367 E20.75416
G1 X113.386 Y115.395 E20.75513
G1 X113.322 Y115.568 E20.76127
G1 X113.128 Y116.255 E20.78501
G1 X113.025 Y116.766 E20.80235
G1 X113.002 Y117.287 E20.81969
G1 X113.058 Y117.805 E20.83702
G1 X113.193 Y118.308 E20.85434
G1 X113.403 Y118.785 E20.87168
G1 X113.684 Y119.224 E20.88901
G1 X113.931 Y119.517 E20.90176
G1 X114.779 Y120.413 E20.94279
G1 X114.795 Y120.468 E20.9447
G1 X114.778 Y120.53 E20.94684
G1 X114.7 Y120.608 E20.9505
G1 X114.64 Y120.625 E20.95258
G1 X114.628 Y120.621 E20.953
G1 X113.91 Y119.904 E20.98675
G1 X113.514 Y119.565 E21.00409
G1 X113.072 Y119.29 E21.0214
G1 X112.592 Y119.087 E21.03873
G1 X112.087 Y118.959 E21.05606
G1 X111.568 Y118.91 E21.0734
G1 X111.048 Y118.94 E21.09073
G1 X110.591 Y119.035 E21.10625
G1 X110.11 Y119.17 E21.12287
G1 X109.625 Y119.067 E21.13936
G1 X109.105 Y119.039 E21.15668
G1 X108.586 Y119.09 E21.17402
G1 X108.082 Y119.22 E21.19133
G1 X107.603 Y119.426 E21.20868
G1 X107.161 Y119.702 E21.22601
G1 X106.776 Y120.034 E21.24292
G1 X106.757 Y120.053 E21.24381
G1 X106.697 Y120.07 E21.24589
G1 X106.687 Y120.067 E21.24623
G1 X106.507 Y119.887 E21.2547
G1 X106.434 Y119.638 E21.26333
G1 X106.437 Y119.588 E21.265
G1 X106.387 Y119.07 E21.2823
G1 X106.257 Y118.565 E21.29965
G1 X106.052 Y118.086 E21.31698
G1 X105.776 Y117.643 E21.33434
G1 X105.443 Y117.256 E21.35132
G1 X104.646 Y116.458 E21.38883
G1 X104.437 Y115.745 E21.41354
M204 S2000
G0 F7500 X104.698 Y115.443
M204 S500
G1 F1500 X105.063 Y115.77 E21.42984
G1 X105.476 Y116.033 E21.44613
G1 X105.926 Y116.225 E21.4624
G1 X106.401 Y116.342 E21.47867
G1 X106.889 Y116.38 E21.49495
G1 X107.377 Y116.338 E21.51124
G1 X107.851 Y116.217 E21.52751
G1 X108.299 Y116.021 E21.54378
G1 X108.71 Y115.754 E21.56008
G1 X109.051 Y115.446 E21.57536
G1 X109.8 Y114.657 E21.61154
G1 X109.843 Y114.645 E21.61303
G1 X109.947 Y114.674 E21.61662
G1 X110.029 Y114.747 E21.62027
G1 X110.443 Y115.009 E21.63657
G1 X110.893 Y115.201 E21.65284
G1 X111.368 Y115.317 E21.6691
G1 X111.857 Y115.354 E21.68541
G1 X112.344 Y115.311 E21.70167
G1 X112.818 Y115.19 E21.71794
G1 X113.266 Y114.993 E21.73422
G1 X113.676 Y114.725 E21.75051
G1 X113.709 Y114.695 E21.752
G1 X113.802 Y114.669 E21.75521
G1 X113.834 Y114.678 E21.75631
G1 X113.942 Y114.792 E21.76154
G1 X113.957 Y114.842 E21.76327
G1 X113.777 Y115.484 E21.78545
G1 X113.707 Y115.677 E21.79228
G1 X113.513 Y116.364 E21.81602
G1 X113.419 Y116.844 E21.83229
G1 X113.404 Y117.333 E21.84856
G1 X113.469 Y117.818 E21.86484
G1 X113.612 Y118.287 E21.88115
G1 X113.829 Y118.725 E21.8974
G1 X114.222 Y119.242 E21.919
G1 X115.136 Y120.207 E21.96321
G1 X115.211 Y120.465 E21.97215
G1 X115.135 Y120.739 E21.9816
